public/files/perm/themes/base/zen/img/arrow.svg

<svg fill="none" height="32" viewBox="0 0 32 32" width="32" xmlns="http://www.w3.org/2000/svg"><path d="m10.8335 20.0001 5.1734-5.1733 5.1733 5.1733c.52.52 1.36.52 1.88 0s.52-1.36 0-1.88l-6.12-6.12c-.52-.52-1.36-.52-1.88 0l-6.12 6.12c-.52.52-.52 1.36 0 1.88.52.5067 1.3733.52 1.8933 0z" fill="#1c1c1c"/></svg>

<svg width="32" height="32" viewBox="0 0 32 32" fill="none" xmlns="http://www.w3.org/2000/svg">
<path d="M10.8335 20.0001L16.0069 14.8268L21.1802 20.0001C21.7002 20.5201 22.5402 20.5201 23.0602 20.0001C23.5802 19.4801 23.5802 18.6401 23.0602 18.1201L16.9402 12.0001C16.4202 11.4801 15.5802 11.4801 15.0602 12.0001L8.9402 18.1201C8.4202 18.6401 8.4202 19.4801 8.9402 20.0001C9.4602 20.5068 10.3135 20.5201 10.8335 20.0001Z" fill="#1C1C1C"/>
</svg>
